icons/vscode-16.svg

<svg aria-hidden="true" width="16" height="16" viewBox="0 0 16 16" xmlns="http://www.w3.org/2000/svg" fill="currentColor"><path d="M10.8634 13.9195C10.6568 14.0195 10.4233 14.0246 10.2185 13.9444C10.1162 13.9044 10.021 13.843 9.93997 13.7614L4.81616 9.06268L2.58433 10.7656C2.37657 10.9241 2.08597 10.9111 1.89301 10.7347L1.17719 10.0802C0.941168 9.86437 0.940898 9.49112 1.17661 9.27496L3.11213 7.5L1.17661 5.72504C0.940898 5.50888 0.941168 5.13563 1.17719 4.91982L1.89301 4.2653C2.08597 4.08887 2.37657 4.07588 2.58433 4.2344L4.81616 5.93732L9.93997 1.23855C9.97037 1.20797 10.0028 1.18023 10.0368 1.15538C10.2748 0.981429 10.5922 0.949298 10.8634 1.08048L13.5399 2.37507C13.8212 2.5111 14 2.79721 14 3.11109V8H10.752V4.53356L6.86419 7.5L10.752 10.4664V8H14V11.8889C14 12.2028 13.8211 12.4889 13.5399 12.625L10.8634 13.9195Z" /></svg>

<svg xmlns="http://www.w3.org/2000/svg" width="16" height="16" aria-hidden="true" viewBox="0 0 16 16"><path d="M10.863 13.919a.796.796 0 0 1-.644.025.795.795 0 0 1-.279-.183L4.816 9.063l-2.232 1.703a.54.54 0 0 1-.691-.031l-.716-.655a.546.546 0 0 1 0-.805L3.112 7.5 1.177 5.725a.546.546 0 0 1 0-.805l.716-.655a.54.54 0 0 1 .691-.031l2.232 1.703L9.94 1.239a.805.805 0 0 1 .923-.159l2.677 1.295c.281.136.46.422.46.736V8h-3.248V4.534L6.864 7.5l3.888 2.966V8H14v3.889c0 .314-.179.6-.46.736l-2.677 1.294Z"/></svg>
